X:4208
L:1/8
M:2/4
K:A
 E |:"A" A>B cd | fe e>c |"E7" ed d>B |"A" dc c>E | A>B cd | fe e>c |"E7" ed d/c/B |1"A" A3 E :|2 
"A" A3 c |:"E7" e>d Bd |"A" e3 a |"E7" g>f ed |"A" c3 c |"E7" e>d Bf |"A" e3 f |"E7" e>d cB | 
"A" A3 z ::[K:D]"D" ff ef |"A7" ag/f/ ee | Ag fe |"D" ed A2 | ff"E7" ^gf |"A" eA/B/ cd | 
"E7" ee/e/ e/d/c/B/ |"A" A3 z ::"A7" ag/f/ eb |"D" ad' af |"A7" ag/f/ e/f/g/b/ |"D" af/g/ a2 | 
"A7" ag/f/ eb |"D" a>d' af | a/f/a/d'/"A7" a/g/f/e/ |"D" d3 z :|

